X:1
T:Wait, Patiently Wait
T:L. H. Parthemore
T:Wait, Patiently Wait
T:Public Domain
T:Public Domain
C:L. H. Parthemore
Z:Public Domain
%%score ( 1 2 ) ( 3 4 )
L:1/8
M:4/4
K:F
V:1 treble 
V:2 treble 
V:3 bass 
V:4 bass 
V:1
 (F>G) | [FA]2 [FA]2 [FB]2 [FA]2 | [Fc]2 [FA]2 [EG]2 ([EG]>[FA]) | [GB]2 [EG]2 [Ec]2 [EG]2 | %4
w: 1.~Our *|are gath- ering, one|by one, To meet *|the bless- èd Lord;|
w: 2.~What *|drous sounds the earth|shall greet, When comes *|the mid- night cry:|
w: 3.~With *|well trimmed, we’ll watch|and wait, All rea- *|dy for that day;|
w: 4.~And *|the ran- somed hosts|shall join A- round *|the great white throne;|
 [FA]6 [Fc]2 | [Fd]2 [Fd]2 [Ff]2 [Fd]2 | [Fd]2 [Fc]2 [Fc]2 [FA]2 | [Ec]3 [EG] [EA]2 [EG]2 | %8
w: How soon|this earth- ly jour-|ney’s done, And then|the rich re- ward.|
w: “The Lord|is come! go out|to meet The Bride-|groom pass- ing by.”|
w: And come|He ear- ly, come|He late, We’ll meet|Him on the way.|
w: All praise|and glo- ry shall|be Thine, Thou Lord|and King a- lone.|
 F6 z2 ||"^Refrain" (F2 F2 [FA]2) (3FAd | (A2 A2 A2 A2) | (B2 B2 B2) (3fed | (A2 A2 A2) z2 | %13
w: |||||
w: Wait,|tient- * * ly wait, Wait,|ly * * *|Wait * * for His com-|it * *|
w: |||||
w: |||||
 (A2 A2 F2) c>f | [Fe]2 (F2 F2) B>d | [Fc]3 [FG] [FA]2 [EG]2 | F6 |] %17
w: ||||
w: ly, * * be it||||
w: ||||
w: ||||
V:2
 F2 | x8 | x8 | x8 | x8 | x8 | x8 | x8 | F6 x2 || c4 F2 x2 | c6 x2 | d6 B2 | c6 x2 | f6 F2 | %14
w: friends||||||||||||||
w: won-||||||||pa-|pa- tient-|wait;|ing, Be|ear-|late. *|
w: lamps||||||||||||||
w: then,||||||||||||||
 x2 d4 F2 | x8 | F6 |] %17
w: |||
w: |||
w: |||
w: |||
V:3
 (A,>B,) | [F,C]2 [F,C]2 [F,D]2 [F,C]2 | [F,A,]2 [F,C]2 [C,C]2 [C,C]2 | %3
w: ~ *|~ ~ ~ ~|~ ~ ~ ~|
 [C,C]2 [C,C]2 [C,G,]2 [C,C]2 | [F,C]6 [F,A,]2 | [B,,B,]2 [B,,B,]2 [D,B,]2 [B,,B,]2 | %6
w: ~ ~ ~ ~|~ ~|~ ~ ~ ~|
 [F,B,]2 [F,A,]2 [F,A,]2 [F,C]2 | [C,C]3 [C,C] [C,C]2 [C,B,]2 | [F,A,]6 z2 || %9
w: ~ ~ ~ ~|~ ~ ~ ~|Be|
 [F,A,]2 [F,A,]2 [F,C]2 [F,A,]2 | [F,C]2 [F,C]2 [F,C]2 [F,F]2 | [B,F]2 [B,F]2 [B,F]2 [B,D]2 | %12
w: not wea- ry watch-|ing, wait- ing; Some|go ear- ly, o-|
 [F,F]2 [F,F]2 [F,F]2 z2 | [F,C]2 [F,C]2 [F,A,]2 [A,,C]2 | [B,,B,]2 [B,,B,]2 [B,,B,]2 (D>B,) | %15
w: thers late; With|your lamps all trimmed|and burn- ing, Rea- *|
 [C,A,]3 [C,B,] [C,C]2 [C,B,]2 | [F,A,]6 |] %17
w: watch and wait. *||
V:4
 F,2 | x8 | x8 | x8 | x8 | x8 | x8 | x8 | x8 || x8 | x8 | x8 | x8 | x8 | x6 B,,2 | x8 | x6 |] %17
w: ~||||||||||||||dy,|||

